Obsidian/actions/24s/appointment-soon.svg

<svg height="24" viewBox="0 0 24 24" width="24" xmlns="http://www.w3.org/2000/svg"><path d="m6 5c-1 0-1 1-1 1v12c0 1 1 1 1 1h6.761719a4.5 4.5 0 0 1 -.728516-2h-5.033203v-7h10v2.03125a4.5 4.5 0 0 1 2 .728516v-6.759766c0-1-1-1-1-1zm10.5 8a3.5 3.5 0 0 0 -3.5 3.5 3.5 3.5 0 0 0 3.5 3.5 3.5 3.5 0 0 0 3.5-3.5 3.5 3.5 0 0 0 -3.5-3.5zm-.5 1h1v2h2v1h-2-1v-1z" fill="#bebebe"/></svg>

<svg xmlns="http://www.w3.org/2000/svg" width="24" height="24" version="1.1" viewBox="0 0 24 24">
 <defs>
  <style id="current-color-scheme" type="text/css">
   .ColorScheme-Text { color:#bebebe; } .ColorScheme-Highlight { color:#4285f4; }
  </style>
 </defs>
 <path style="fill:currentColor" class="ColorScheme-Text" d="M 6,5 C 5,5 5,6 5,6 v 12 c 0,1 1,1 1,1 h 6.761719 A 4.5,4.5 0 0 1 12.033203,17 H 7 v -7 h 10 v 2.03125 a 4.5,4.5 0 0 1 2,0.728516 V 6 C 19,5 18,5 18,5 Z m 10.5,8 A 3.5,3.5 0 0 0 13,16.5 3.5,3.5 0 0 0 16.5,20 3.5,3.5 0 0 0 20,16.5 3.5,3.5 0 0 0 16.5,13 Z M 16,14 h 1 v 2 h 2 v 1 h -2 -1 v -1 z"/>
</svg>
